X:33
T:An Raibh T\'u ag an gCarraig?
R:slow air
Z:id:hn-slowair-33
M:3/4
L:1/8
Q:1/4=80
K:Edor
edB | B3 Bde | e4 ef | g2 g4 | fe f3 e | dBA B3- | B4
ef | g2 g4 | fe f f3 | edB e e2- | e2 de f>e | e6 ||
g>fe dB2- | B3 ABc | d3 B3 | g>fe dB2 | AF>E D3- | D3
DEF | G G3 ed | BG F2 F2- | F2 BA FG | E E3 DE | F>E E4- | E3 ||

